svgs/sharp-light/castle.svg

<svg xmlns="http://www.w3.org/2000/svg" viewBox="0 0 640 512"><!--! Font Awesome Pro 6.6.0 by @fontawesome - https://fontawesome.com License - https://fontawesome.com/license (Commercial License) Copyright 2024 Fonticons, Inc. --><path d="M128 0l16 0 72 0 16 0 0 16 0 48 32 0 0-48 0-16 16 0 80 0 16 0 0 16 0 48 32 0 0-48 0-16 16 0 72 0 16 0 0 16 0 208 32 0 0-48 0-16 16 0 64 0 16 0 0 16 0 320 0 16-16 0L16 512 0 512l0-16L0 176l0-16 16 0 64 0 16 0 0 16 0 48 32 0 0-208 0-16zm32 256l-16 0-64 0-16 0 0-16 0-48-32 0 0 288 192 0 0-80c0-53 43-96 96-96s96 43 96 96l0 80 192 0 0-288-32 0 0 48 0 16-16 0-64 0-16 0-320 0zm320-32l0-192-40 0 0 48 0 16-16 0-64 0-16 0 0-16 0-48-48 0 0 48 0 16-16 0-64 0-16 0 0-16 0-48-40 0 0 192 320 0zM384 400c0-35.3-28.7-64-64-64s-64 28.7-64 64l0 80 128 0 0-80z"/></svg>

<svg xmlns="http://www.w3.org/2000/svg" viewBox="0 0 640 512"><!--! Font Awesome Pro 6.4.2 by @fontawesome - https://fontawesome.com License - https://fontawesome.com/license (Commercial License) Copyright 2023 Fonticons, Inc. --><path d="M128 0h16 72 16V16 64h32V16 0h16 80 16V16 64h32V16 0h16 72 16V16 224h32V176 160h16 64 16v16V496v16H624 16 0V496 176 160H16 80 96v16 48h32V16 0zm32 256H144 80 64V240 192H32V480H224V400c0-53 43-96 96-96s96 43 96 96v80H608V192H576v48 16H560 496 480 160zm320-32V32H440V80 96H424 360 344V80 32H296V80 96H280 216 200V80 32H160V224H480zM384 400c0-35.3-28.7-64-64-64s-64 28.7-64 64v80H384V400z"/></svg>
